X: 37714
T: Soir Et Matin
R: waltz
M: 3/4
K: Dmajor
Ade|:f2 fedc|B2 BAGF|EDE FGA|D4ag|
f2 efdc|B2 BAGF|EDE FGA|1 D3 Ade:|2 D6||
|:C2D2E2|GFGFED|CDEFGA|(3Bcd (3efg (3fga|
d4dc|AdcAGF|AdcAGF|1 EG c4:|2 EG c4-|c3 Ade||

